is/Ubuntu.svg

<svg xmlns="http://www.w3.org/2000/svg" xmlns:xlink="http://www.w3.org/1999/xlink" xmlns:sodipodi="http://sodipodi.sourceforge.net/DTD/sodipodi-0.dtd" xmlns:inkscape="http://www.inkscape.org/namespaces/inkscape" viewBox="0 0 192 192" version="1.1" inkscape:version="0.91 r13725" sodipodi:docname="distributor-logo-ubuntu.svg" inkscape:export-filename="/home/alex/Pictures/exports/Oko icon pack/distributor-logo-ubuntu.png" inkscape:export-xdpi="480" inkscape:export-ydpi="480" height="1em" width="1em">
  <sodipodi:namedview pagecolor="#ffffff" bordercolor="#666666" borderopacity="1.0" inkscape:pageopacity="0.0" inkscape:pageshadow="2" inkscape:zoom="4" inkscape:cx="85.176746" inkscape:cy="106.68298" inkscape:document-units="px" inkscape:current-layer="layer1" showgrid="true" units="px" inkscape:showpageshadow="false" borderlayer="true" inkscape:window-width="1920" inkscape:window-height="1023" inkscape:window-x="0" inkscape:window-y="27" inkscape:window-maximized="1" inkscape:snap-grids="false" inkscape:snap-center="true" inkscape:snap-bbox="true" inkscape:bbox-nodes="false" inkscape:object-nodes="true">
    <inkscape:grid empspacing="4" type="xygrid"/>
  </sodipodi:namedview>
  <defs>
    <linearGradient inkscape:collect="always" id="a">
      <stop style="stop-color:#3e2723;stop-opacity:0.2" offset="0"/>
      <stop style="stop-color:#3e2723;stop-opacity:0" offset="1"/>
    </linearGradient>
    <linearGradient inkscape:collect="always" xlink:href="#a" id="c" x1="34.173828" y1="37.56263" x2="172.00964" y2="175.39845" gradientUnits="userSpaceOnUse"/>
    <filter style="color-interpolation-filters:sRGB" inkscape:label="Drop Shadow" id="d">
      <feFlood flood-opacity="0.2" flood-color="rgb(62,39,35)" result="flood"/>
      <feComposite in="flood" in2="SourceGraphic" operator="in" result="composite1"/>
      <feGaussianBlur in="composite1" stdDeviation="4" result="blur"/>
      <feOffset dx="4" dy="4" result="offset"/>
      <feComposite in="SourceGraphic" in2="offset" operator="over" result="composite2"/>
    </filter>
    <filter style="color-interpolation-filters:sRGB" inkscape:label="Drop Shadow" id="b">
      <feFlood flood-opacity="0.12" flood-color="rgb(0,0,0)" result="flood"/>
      <feComposite in="flood" in2="SourceGraphic" operator="in" result="composite1"/>
      <feGaussianBlur in="composite1" stdDeviation="2" result="blur"/>
      <feOffset dx="0" dy="0" result="offset"/>
      <feComposite in="SourceGraphic" in2="offset" operator="over" result="fbSourceGraphic"/>
      <feColorMatrix result="fbSourceGraphicAlpha" in="fbSourceGraphic" values="0 0 0 -1 0 0 0 0 -1 0 0 0 0 -1 0 0 0 0 1 0"/>
      <feFlood flood-opacity="0.23999999999999999" flood-color="rgb(0,0,0)" result="flood" in="fbSourceGraphic"/>
      <feComposite in2="fbSourceGraphic" in="flood" operator="in" result="composite1"/>
      <feGaussianBlur in="composite1" stdDeviation="2" result="blur"/>
      <feOffset dx="0" dy="4" result="offset"/>
      <feComposite in2="offset" in="fbSourceGraphic" operator="over" result="composite2"/>
    </filter>
  </defs>
  <g transform="translate(0,-860.36216)" inkscape:groupmode="layer" inkscape:label="Layer 1">
    <rect ry="12" rx="12" y="880.36218" x="20" height="152" width="152" style="color:#000000;clip-rule:nonzero;display:inline;overflow:visible;visibility:visible;opacity:1;isolation:auto;mix-blend-mode:normal;color-interpolation:sRGB;color-interpolation-filters:linearRGB;solid-color:#000000;solid-opacity:1;fill:#ff5722;fill-opacity:1;fill-rule:evenodd;stroke:none;stroke-width:24;stroke-linecap:round;stroke-linejoin:round;stroke-miterlimit:4;stroke-dasharray:none;stroke-dashoffset:0;stroke-opacity:1;color-rendering:auto;image-rendering:auto;shape-rendering:auto;text-rendering:auto;enable-background:accumulate;filter:url(#b)"/>
    <path style="opacity:1;fill:url(#c);fill-opacity:1;fill-rule:nonzero;stroke:none" d="M 122.11133 41.101562 C 118.51408 41.008243 114.98101 42.837281 113.05469 46.173828 C 110.52857 50.54906 111.64145 56.014484 115.44141 59.101562 L 121.74414 65.472656 L 126.17188 71.919922 L 107.77539 53.523438 C 104.02619 52.486088 100.08066 51.919922 96 51.919922 C 88.9833 51.919922 82.353549 53.567325 76.464844 56.484375 L 83.515625 69.117188 L 124.12891 109.73047 L 124.04102 111.82031 L 71.544922 59.326172 C 62.665968 65.259262 56.059831 74.328422 53.316406 84.951172 L 53.318359 84.951172 C 54.298316 85.500297 54.982174 86.184752 55.351562 86.996094 C 57.358275 89.450889 58.570314 92.580118 58.570312 96 L 58.570312 96.001953 C 58.57031 96.051473 58.563 96.099032 58.5625 96.148438 C 58.48686 96.082747 58.415573 96.012558 58.337891 95.949219 L 52.28125 89.724609 C 50.423321 87.370741 47.551702 85.855469 44.320312 85.855469 C 38.715311 85.855469 34.173828 90.395 34.173828 96 C 34.173828 99.217626 35.675261 102.08086 38.011719 103.93945 L 106.08789 172 L 160 172 C 166.648 172 172 166.648 172 160 L 172 87.148438 L 129.7207 44.869141 C 128.95921 43.927293 128.02401 43.100927 126.91211 42.458984 L 126.91016 42.458984 C 125.39382 41.583772 123.74644 41.143982 122.11133 41.101562 z" transform="translate(0,860.36216)"/>
    <path style="fill:#fafafa;fill-opacity:1;fill-rule:nonzero;stroke:none;filter:url(#d)" d="m 116.76643,920.39071 c 4.85283,2.8025 11.05644,1.14021 13.857,-3.71115 2.80198,-4.85329 1.14115,-11.05642 -3.71215,-13.85842 -4.85232,-2.80104 -11.05544,-1.13924 -13.85746,3.71407 -2.80101,4.85134 -1.13926,11.05446 3.71261,13.8555 z m -20.766446,65.61122 c -4.46185,0 -8.690194,-0.99202 -12.485681,-2.75766 l -7.050364,12.63439 c 5.889179,2.91607 12.519345,4.56374 19.536045,4.56374 4.080656,0 8.026276,-0.56548 11.775966,-1.60379 0.66343,-4.07529 3.08327,-7.83128 6.94115,-10.05905 3.85103,-2.22337 8.30803,-2.4437 12.16591,-0.98567 7.50272,-7.37744 12.3848,-17.41456 13.09554,-28.59237 l -14.46097,-0.2105 c -1.33083,15.14098 -14.03292,27.01099 -29.517597,27.01099 z m 0,-59.27989 c 15.484676,0 28.186796,11.87246 29.517596,27.01148 l 14.46097,-0.21096 c -0.71174,-11.17684 -5.59379,-21.21394 -13.09748,-28.59089 -3.85739,1.45706 -8.3139,1.23623 -12.16542,-0.98763 -3.85742,-2.2268 -6.27675,-5.98231 -6.94019,-10.05808 -3.7492,-1.03735 -7.69482,-1.6033 -11.775476,-1.6033 -7.0167,0 -13.646367,1.64717 -19.535072,4.56422 l 7.049878,12.63293 c 3.795,-1.76564 8.023344,-2.75765 12.485194,-2.75765 z m -29.639448,29.63994 c 0,-10.02784 4.983438,-18.88478 12.603185,-24.24799 l -7.417908,-12.42672 c -8.879364,5.93308 -15.485145,15.00206 -18.228654,25.62513 3.205152,2.61237 5.253029,6.59065 5.253029,11.05056 0,4.45943 -2.048361,8.43771 -5.253514,11.04961 2.743026,10.62354 9.348814,19.69253 18.228652,25.62558 l 7.418395,-12.42721 C 71.343974,975.24824 66.360536,966.3913 66.360536,956.36198 Z m 50.407394,35.97079 c -4.85337,2.802 -6.51515,9.00463 -3.71364,13.85603 2.80203,4.8533 9.00464,6.5161 13.85794,3.7141 4.85184,-2.8016 6.51413,-9.0047 3.71214,-13.85753 -2.80104,-4.85085 -9.00465,-6.51364 -13.85644,-3.7126 z M 44.320825,946.21666 c -5.605002,0 -10.146811,4.5413 -10.146811,10.1463 0,5.60353 4.541809,10.14534 10.146811,10.14534 5.603024,0 10.145316,-4.54181 10.145316,-10.14534 0,-5.605 -4.542292,-10.1463 -10.145316,-10.1463" inkscape:connector-curvature="0"/>
    <path inkscape:connector-curvature="0" d="m 32,880.36216 c -6.648,0 -12,5.352 -12,12 l 0,1 c 0,-6.648 5.352,-12 12,-12 l 128,0 c 6.648,0 12,5.352 12,12 l 0,-1 c 0,-6.648 -5.352,-12 -12,-12 l -128,0 z" style="color:#000000;clip-rule:nonzero;display:inline;overflow:visible;visibility:visible;opacity:0.2;isolation:auto;mix-blend-mode:normal;color-interpolation:sRGB;color-interpolation-filters:linearRGB;solid-color:#000000;solid-opacity:1;fill:#ffffff;fill-opacity:1;fill-rule:evenodd;stroke:none;stroke-width:24;stroke-linecap:round;stroke-linejoin:round;stroke-miterlimit:4;stroke-dasharray:none;stroke-dashoffset:0;stroke-opacity:1;color-rendering:auto;image-rendering:auto;shape-rendering:auto;text-rendering:auto;enable-background:accumulate"/>
    <path d="m 20,1019.3622 0,1 c 0,6.648 5.352,12 12,12 l 128,0 c 6.648,0 12,-5.352 12,-12 l 0,-1 c 0,6.648 -5.352,12 -12,12 l -128,0 c -6.648,0 -12,-5.352 -12,-12 z" style="color:#000000;clip-rule:nonzero;display:inline;overflow:visible;visibility:visible;opacity:0.2;isolation:auto;mix-blend-mode:normal;color-interpolation:sRGB;color-interpolation-filters:linearRGB;solid-color:#000000;solid-opacity:1;fill:#3e2723;fill-opacity:1;fill-rule:evenodd;stroke:none;stroke-width:24;stroke-linecap:round;stroke-linejoin:round;stroke-miterlimit:4;stroke-dasharray:none;stroke-dashoffset:0;stroke-opacity:1;color-rendering:auto;image-rendering:auto;shape-rendering:auto;text-rendering:auto;enable-background:accumulate" inkscape:connector-curvature="0"/>
    <path transform="translate(0,860.36216)" d="M 111.71484 51.742188 C 111.53539 55.417923 113.35881 59.062505 116.76562 61.029297 C 121.61845 63.831797 127.82249 62.169719 130.62305 57.318359 C 131.63464 55.566191 132.05685 53.638295 131.96484 51.757812 C 131.8871 53.313893 131.45576 54.876014 130.62305 56.318359 C 127.82249 61.169719 121.61845 62.831797 116.76562 60.029297 C 113.66845 58.24126 111.88112 55.066266 111.71484 51.742188 z M 76.908203 57.279297 C 76.761654 57.349886 76.610491 57.412227 76.464844 57.484375 L 83.515625 70.117188 C 87.310625 68.351548 91.53815 67.359375 96 67.359375 C 111.48468 67.359375 124.18678 79.232074 125.51758 94.371094 L 139.97852 94.160156 C 139.95719 93.825273 139.9194 93.494905 139.89062 93.162109 L 125.51758 93.371094 C 124.18678 78.232074 111.48468 66.359375 96 66.359375 C 91.53815 66.359375 87.310625 67.351548 83.515625 69.117188 L 76.908203 57.279297 z M 78.550781 72.060547 C 71.167876 77.450568 66.361328 86.157164 66.361328 96 C 66.361328 96.168035 66.374166 96.332634 66.376953 96.5 C 66.540496 86.679389 71.470808 78.025306 78.962891 72.751953 L 78.550781 72.060547 z M 53.542969 85.15625 C 53.469052 85.42162 53.385456 85.683808 53.316406 85.951172 C 56.39988 88.464368 58.392665 92.245809 58.541016 96.5 C 58.546857 96.332337 58.570312 96.169094 58.570312 96 C 58.570312 91.650103 56.612846 87.769379 53.542969 85.15625 z M 34.199219 96.5 C 34.191067 96.666862 34.173828 96.831112 34.173828 97 C 34.173828 102.60353 38.715311 107.14648 44.320312 107.14648 C 49.923336 107.14648 54.466797 102.60353 54.466797 97 C 54.466797 96.831112 54.449559 96.666862 54.441406 96.5 C 54.179457 101.87001 49.754824 106.14648 44.320312 106.14648 C 38.883882 106.14648 34.461143 101.87001 34.199219 96.5 z M 139.89062 99.837891 C 138.96005 110.61316 134.16073 120.27525 126.88281 127.43164 C 123.02493 125.97361 118.56783 126.1946 114.7168 128.41797 C 110.85892 130.64574 108.43882 134.40127 107.77539 138.47656 C 104.0257 139.51487 100.08066 140.08008 96 140.08008 C 89.157419 140.08008 82.688845 138.50279 76.910156 135.7207 L 76.464844 136.51758 C 82.354023 139.43365 88.9833 141.08008 96 141.08008 C 100.08066 141.08008 104.0257 140.51482 107.77539 139.47656 C 108.43882 135.40127 110.85892 131.64574 114.7168 129.41797 C 118.56783 127.1946 123.02493 126.97361 126.88281 128.43164 C 134.38553 121.0542 139.26778 111.01765 139.97852 99.839844 L 139.89062 99.837891 z M 53.541016 107.8457 C 53.4638 107.9114 53.395027 107.98671 53.316406 108.05078 C 56.059432 118.67432 62.665084 127.74273 71.544922 133.67578 L 78.962891 121.24805 C 78.822314 121.14911 78.689549 121.04075 78.550781 120.93945 L 71.544922 132.67578 C 62.888692 126.89213 56.403628 118.12443 53.541016 107.8457 z M 111.71484 141.25781 C 111.62064 143.14102 112.04151 145.07165 113.05469 146.82617 C 115.85672 151.67947 122.05881 153.34302 126.91211 150.54102 C 130.31769 148.57453 132.14298 144.93275 131.96484 141.25781 C 131.79685 144.5802 130.00745 147.75367 126.91211 149.54102 C 122.05881 152.34302 115.85672 150.67947 113.05469 145.82617 C 112.2203 144.38125 111.79099 142.81691 111.71484 141.25781 z" style="fill:#3e2723;fill-opacity:1;fill-rule:nonzero;stroke:none;opacity:0.2"/>
    <path inkscape:connector-curvature="0" d="m 122.11133,901.46391 c -3.59736,-0.0934 -7.13025,1.73562 -9.05664,5.07227 -1.013,1.7545 -1.43405,3.68512 -1.33985,5.56836 0.0761,-1.55913 0.50561,-3.12346 1.33985,-4.56836 2.80202,-4.85331 9.0051,-6.51589 13.85742,-3.71485 3.10113,1.79041 4.8899,4.97061 5.05273,8.29883 0.18385,-3.67991 -1.64178,-7.32955 -5.05273,-9.29883 -1.51635,-0.87532 -3.16562,-1.31494 -4.80078,-1.35742 z M 96,912.28227 c -7.0167,0 -13.646451,1.64741 -19.535156,4.56446 l 0.443359,0.79492 C 82.686796,914.85823 89.156847,913.28227 96,913.28227 c 4.08066,0 8.02619,0.56617 11.77539,1.60352 0.66344,4.07577 3.08203,7.83179 6.93945,10.05859 3.85152,2.22386 8.30863,2.44534 12.16602,0.98828 7.27886,7.15592 12.07828,16.81742 13.00976,27.5918 l 0.0879,-0.002 c -0.71174,-11.17684 -5.59397,-21.2129 -13.09766,-28.58985 -3.85739,1.45706 -8.3145,1.23558 -12.16602,-0.98828 -3.85742,-2.2268 -6.27601,-5.98282 -6.93945,-10.05859 -3.7492,-1.03735 -7.69473,-1.60352 -11.77539,-1.60352 z m -24.455078,7.40625 c -8.879364,5.93308 -15.485007,15.00193 -18.228516,25.625 0.07906,0.0644 0.148923,0.13899 0.226563,0.20508 2.862999,-10.27847 9.346067,-19.04828 18.001953,-24.83203 l 7.005859,11.73633 c 0.138676,-0.10124 0.271627,-0.20972 0.41211,-0.3086 l -7.417969,-12.42578 z m -27.22461,26.5293 c -5.605001,0 -10.146484,4.53953 -10.146484,10.14453 0,0.16853 0.01727,0.33349 0.02539,0.5 0.262394,-5.37088 4.68498,-9.64453 10.121093,-9.64453 5.434196,0 9.858674,4.27365 10.121094,9.64453 0.0081,-0.16651 0.02539,-0.33147 0.02539,-0.5 0,-5.605 -4.54346,-10.14453 -10.146485,-10.14453 z m 14.220704,10.64453 c -0.148218,4.25401 -2.140991,8.03792 -5.22461,10.55078 0.06907,0.26752 0.150662,0.5294 0.22461,0.79492 3.070649,-2.6127 5.029296,-6.49566 5.029296,-10.8457 0,-0.16931 -0.02344,-0.33212 -0.0293,-0.5 z m 7.835937,0 c -0.0028,0.16734 -0.01563,0.33199 -0.01563,0.5 0,9.84429 4.806548,18.54991 12.189453,23.93945 l 0.41211,-0.6914 C 71.470808,975.33755 66.540496,966.68437 66.376953,956.86235 Z m 59.140627,2.12891 c -1.33083,15.14098 -14.0329,27.01171 -29.51758,27.01171 -4.46185,0 -8.690841,-0.99217 -12.486328,-2.75781 l -7.048828,12.63477 c 0.145659,0.0721 0.296799,0.13451 0.443359,0.20508 l 6.605469,-11.83985 c 3.795487,1.76564 8.024478,2.75781 12.486328,2.75781 15.48468,0 28.18675,-11.87073 29.51758,-27.01171 l 14.37304,0.20898 c 0.0287,-0.33282 0.0666,-0.66313 0.0879,-0.99805 l -14.46094,-0.21093 z m -3.94922,31.98437 c -1.63512,0.0424 -3.2846,0.4821 -4.80078,1.35742 -3.40787,1.96747 -5.23226,5.61145 -5.05274,9.28715 0.16628,-3.32407 1.9546,-6.4985 5.05274,-8.28715 4.85179,-2.80104 11.05638,-1.13796 13.85742,3.71289 0.8355,1.44702 1.2644,3.01306 1.33984,4.57426 0.0952,-1.88524 -0.32552,-3.81753 -1.33984,-5.57426 -1.92571,-3.33496 -5.45938,-5.16363 -9.05664,-5.07031 z" style="fill:#ffffff;fill-opacity:1;fill-rule:nonzero;stroke:none"/>
  </g>
</svg>

<svg xmlns="http://www.w3.org/2000/svg" xmlns:xlink="http://www.w3.org/1999/xlink" viewBox="0 0 192 192" height="1em" width="1em">
  <defs>
    <linearGradient id="a">
      <stop style="stop-color:#3e2723;stop-opacity:.2" offset="0"/>
      <stop style="stop-color:#3e2723;stop-opacity:0" offset="1"/>
    </linearGradient>
    <linearGradient xlink:href="#a" id="c" x1="34.174" y1="37.563" x2="172.01" y2="175.398" gradientUnits="userSpaceOnUse"/>
    <filter style="color-interpolation-filters:sRGB" id="d">
      <feFlood flood-opacity=".2" flood-color="#3E2723" result="flood"/>
      <feComposite in="flood" in2="SourceGraphic" operator="in" result="composite1"/>
      <feGaussianBlur in="composite1" stdDeviation="4" result="blur"/>
      <feOffset dx="4" dy="4" result="offset"/>
      <feComposite in="SourceGraphic" in2="offset" result="composite2"/>
    </filter>
    <filter style="color-interpolation-filters:sRGB" id="b">
      <feFlood flood-opacity=".12" flood-color="#000" result="flood"/>
      <feComposite in="flood" in2="SourceGraphic" operator="in" result="composite1"/>
      <feGaussianBlur in="composite1" stdDeviation="2" result="blur"/>
      <feOffset result="offset"/>
      <feComposite in="SourceGraphic" in2="offset" result="fbSourceGraphic"/>
      <feColorMatrix result="fbSourceGraphicAlpha" in="fbSourceGraphic" values="0 0 0 -1 0 0 0 0 -1 0 0 0 0 -1 0 0 0 0 1 0"/>
      <feFlood flood-opacity=".24" flood-color="#000" result="flood"/>
      <feComposite in2="fbSourceGraphic" in="flood" operator="in" result="composite1"/>
      <feGaussianBlur in="composite1" stdDeviation="2" result="blur"/>
      <feOffset dy="4" result="offset"/>
      <feComposite in2="offset" in="fbSourceGraphic" result="composite2"/>
    </filter>
  </defs>
  <g transform="translate(0 -860.362)">
    <rect ry="12" rx="12" y="880.362" x="20" height="152" width="152" style="color:#000;clip-rule:nonzero;display:inline;overflow:visible;visibility:visible;opacity:1;isolation:auto;mix-blend-mode:normal;color-interpolation:sRGB;color-interpolation-filters:linearRGB;solid-color:#000;solid-opacity:1;fill:#ff5722;fill-opacity:1;fill-rule:evenodd;stroke:none;stroke-width:24;stroke-linecap:round;stroke-linejoin:round;stroke-miterlimit:4;stroke-dasharray:none;stroke-dashoffset:0;stroke-opacity:1;color-rendering:auto;image-rendering:auto;shape-rendering:auto;text-rendering:auto;enable-background:accumulate;filter:url(#b)"/>
    <path style="opacity:1;fill:url(#c);fill-opacity:1;fill-rule:nonzero;stroke:none" d="M122.111 41.102a10.142 10.142 0 0 0-9.056 5.072c-2.526 4.375-1.414 9.84 2.386 12.928l6.303 6.37 4.428 6.448-18.397-18.397A44.086 44.086 0 0 0 96 51.92a43.884 43.884 0 0 0-19.535 4.564l7.05 12.633 40.614 40.613-.088 2.09-52.496-52.494C62.666 65.26 56.06 74.328 53.316 84.951h.002c.98.55 1.664 1.234 2.034 2.045A14.173 14.173 0 0 1 58.57 96v.002c0 .05-.007.097-.008.146-.075-.065-.146-.135-.224-.199l-6.057-6.224a10.117 10.117 0 0 0-7.96-3.87c-5.606 0-10.147 4.54-10.147 10.145a10.12 10.12 0 0 0 3.838 7.94L106.088 172H160c6.648 0 12-5.352 12-12V87.148L129.72 44.87a10.1 10.1 0 0 0-2.808-2.41h-.002a10.098 10.098 0 0 0-4.799-1.357z" transform="translate(0 860.362)"/>
    <path style="fill:#fafafa;fill-opacity:1;fill-rule:nonzero;stroke:none;filter:url(#d)" d="M116.766 920.39c4.853 2.803 11.057 1.14 13.857-3.71 2.802-4.854 1.142-11.057-3.712-13.859-4.852-2.8-11.055-1.14-13.857 3.714-2.801 4.852-1.14 11.055 3.712 13.856zM96 986.003c-4.462 0-8.69-.992-12.486-2.758l-7.05 12.635A43.902 43.902 0 0 0 96 1000.442c4.08 0 8.026-.565 11.776-1.603a14.22 14.22 0 0 1 6.941-10.06 14.216 14.216 0 0 1 12.166-.985c7.503-7.378 12.385-17.415 13.096-28.592l-14.461-.211c-1.331 15.141-14.033 27.011-29.518 27.011zm0-59.28c15.485 0 28.187 11.873 29.518 27.012l14.46-.211c-.711-11.177-5.593-21.214-13.097-28.591a14.217 14.217 0 0 1-12.165-.988 14.216 14.216 0 0 1-6.94-10.058A44.087 44.087 0 0 0 96 912.283a43.883 43.883 0 0 0-19.535 4.564l7.05 12.633A29.517 29.517 0 0 1 96 926.722zm-29.64 29.64c0-10.028 4.984-18.885 12.604-24.248l-7.418-12.427c-8.88 5.933-15.485 15.002-18.229 25.625a14.219 14.219 0 0 1 5.253 11.051c0 4.46-2.048 8.438-5.253 11.05 2.743 10.623 9.348 19.692 18.228 25.625l7.419-12.427c-7.62-5.363-12.603-14.22-12.603-24.249Zm50.408 35.97c-4.853 2.803-6.515 9.005-3.714 13.857 2.802 4.853 9.005 6.516 13.858 3.714 4.852-2.802 6.514-9.005 3.712-13.858-2.8-4.85-9.004-6.513-13.856-3.712zM44.32 946.218c-5.605 0-10.147 4.541-10.147 10.146 0 5.603 4.542 10.145 10.147 10.145 5.603 0 10.145-4.542 10.145-10.145 0-5.605-4.542-10.146-10.145-10.146"/>
    <path d="M32 880.362c-6.648 0-12 5.352-12 12v1c0-6.648 5.352-12 12-12h128c6.648 0 12 5.352 12 12v-1c0-6.648-5.352-12-12-12H32z" style="color:#000;clip-rule:nonzero;display:inline;overflow:visible;visibility:visible;opacity:.2;isolation:auto;mix-blend-mode:normal;color-interpolation:sRGB;color-interpolation-filters:linearRGB;solid-color:#000;solid-opacity:1;fill:#fff;fill-opacity:1;fill-rule:evenodd;stroke:none;stroke-width:24;stroke-linecap:round;stroke-linejoin:round;stroke-miterlimit:4;stroke-dasharray:none;stroke-dashoffset:0;stroke-opacity:1;color-rendering:auto;image-rendering:auto;shape-rendering:auto;text-rendering:auto;enable-background:accumulate"/>
    <path d="M20 1019.362v1c0 6.648 5.352 12 12 12h128c6.648 0 12-5.352 12-12v-1c0 6.648-5.352 12-12 12H32c-6.648 0-12-5.352-12-12z" style="color:#000;clip-rule:nonzero;display:inline;overflow:visible;visibility:visible;opacity:.2;isolation:auto;mix-blend-mode:normal;color-interpolation:sRGB;color-interpolation-filters:linearRGB;solid-color:#000;solid-opacity:1;fill:#3e2723;fill-opacity:1;fill-rule:evenodd;stroke:none;stroke-width:24;stroke-linecap:round;stroke-linejoin:round;stroke-miterlimit:4;stroke-dasharray:none;stroke-dashoffset:0;stroke-opacity:1;color-rendering:auto;image-rendering:auto;shape-rendering:auto;text-rendering:auto;enable-background:accumulate"/>
    <path transform="translate(0 860.362)" d="M111.715 51.742c-.18 3.676 1.644 7.32 5.05 9.287 4.853 2.803 11.057 1.14 13.858-3.71a10.093 10.093 0 0 0 1.342-5.561 10.099 10.099 0 0 1-1.342 4.56c-2.8 4.852-9.005 6.514-13.857 3.711-3.098-1.788-4.885-4.963-5.051-8.287zM76.908 57.28c-.146.07-.298.133-.443.205l7.05 12.633A29.514 29.514 0 0 1 96 67.36c15.485 0 28.187 11.873 29.518 27.012l14.46-.21c-.02-.336-.059-.666-.087-.999l-14.373.21C124.187 78.231 111.485 66.358 96 66.358c-4.462 0-8.69.993-12.484 2.758L76.908 57.28zm1.643 14.782C71.168 77.45 66.36 86.157 66.36 96c0 .168.013.333.016.5.163-9.82 5.094-18.475 12.586-23.748l-.412-.691zM53.543 85.156c-.074.266-.158.528-.227.795A14.209 14.209 0 0 1 58.541 96.5c.006-.168.03-.33.03-.5 0-4.35-1.958-8.23-5.028-10.844zM34.199 96.5c-.008.167-.025.331-.025.5 0 5.604 4.541 10.146 10.146 10.146 5.603 0 10.147-4.542 10.147-10.146 0-.169-.017-.333-.026-.5-.262 5.37-4.686 9.646-10.12 9.646-5.437 0-9.86-4.276-10.122-9.646zm105.692 3.338c-.93 10.775-5.73 20.437-13.008 27.594a14.216 14.216 0 0 0-12.166.986 14.22 14.22 0 0 0-6.942 10.059A44.05 44.05 0 0 1 96 140.08a43.88 43.88 0 0 1-19.09-4.36l-.445.798A43.897 43.897 0 0 0 96 141.08c4.08 0 8.026-.565 11.775-1.603a14.22 14.22 0 0 1 6.942-10.059 14.216 14.216 0 0 1 12.166-.986c7.503-7.378 12.385-17.414 13.096-28.592l-.088-.002zm-86.35 8.008c-.077.065-.146.14-.225.205 2.743 10.623 9.35 19.692 18.229 25.625l7.418-12.428c-.14-.099-.273-.207-.412-.309l-7.006 11.737c-8.656-5.784-15.141-14.552-18.004-24.83zm58.174 33.412a10.084 10.084 0 0 0 1.34 5.568c2.802 4.853 9.004 6.517 13.857 3.715 3.406-1.966 5.231-5.608 5.053-9.283-.168 3.322-1.958 6.496-5.053 8.283-4.853 2.802-11.055 1.138-13.857-3.715a10.084 10.084 0 0 1-1.34-4.568z" style="fill:#3e2723;fill-opacity:1;fill-rule:nonzero;stroke:none;opacity:.2"/>
    <path d="M122.111 901.464a10.141 10.141 0 0 0-9.056 5.072 10.085 10.085 0 0 0-1.34 5.569c.076-1.56.505-3.124 1.34-4.569 2.802-4.853 9.005-6.516 13.857-3.715 3.101 1.79 4.89 4.97 5.053 8.3.184-3.68-1.642-7.33-5.053-9.3a10.105 10.105 0 0 0-4.8-1.357zM96 912.282a43.884 43.884 0 0 0-19.535 4.565l.443.795A43.868 43.868 0 0 1 96 913.282c4.08 0 8.026.566 11.775 1.604a14.216 14.216 0 0 0 6.94 10.058 14.219 14.219 0 0 0 12.166.989c7.279 7.156 12.078 16.817 13.01 27.591l.088-.002c-.712-11.176-5.594-21.212-13.098-28.59a14.219 14.219 0 0 1-12.166-.988 14.216 14.216 0 0 1-6.94-10.058A44.086 44.086 0 0 0 96 912.282zm-24.455 7.407c-8.88 5.933-15.485 15.001-18.229 25.625.08.064.15.139.227.205 2.863-10.279 9.346-19.049 18.002-24.832l7.006 11.736c.138-.101.271-.21.412-.309l-7.418-12.425zM44.32 946.218c-5.605 0-10.146 4.54-10.146 10.144 0 .169.017.334.025.5.263-5.37 4.685-9.644 10.121-9.644 5.435 0 9.859 4.273 10.121 9.644.009-.166.026-.331.026-.5 0-5.605-4.544-10.144-10.147-10.144zm14.221 10.644a14.212 14.212 0 0 1-5.225 10.551c.07.268.151.53.225.795 3.07-2.613 5.03-6.496 5.03-10.846 0-.169-.024-.332-.03-.5zm7.836 0c-.003.168-.016.332-.016.5 0 9.845 4.807 18.55 12.19 23.94l.412-.692c-7.492-5.272-12.423-13.926-12.586-23.748Zm59.14 2.13c-1.33 15.14-14.032 27.011-29.517 27.011-4.462 0-8.69-.992-12.486-2.758l-7.05 12.635c.147.072.298.134.444.205l6.606-11.84A29.524 29.524 0 0 0 96 987.003c15.485 0 28.187-11.87 29.518-27.012l14.373.21c.028-.334.066-.664.088-.999l-14.461-.21zm-3.949 31.984a10.103 10.103 0 0 0-4.8 1.357c-3.408 1.968-5.233 5.612-5.053 9.287.166-3.324 1.954-6.498 5.053-8.287 4.851-2.801 11.056-1.138 13.857 3.713a10.085 10.085 0 0 1 1.34 4.574 10.086 10.086 0 0 0-1.34-5.574 10.142 10.142 0 0 0-9.057-5.07z" style="fill:#fff;fill-opacity:1;fill-rule:nonzero;stroke:none"/>
  </g>
</svg>
